X: 13222
T: Saw ye my Peggy
%R: air, minuet
B: James Oswald "The Caledonian Pocket Companion" v.1 b.3 p.22 #2 (and top 4 staffs of p.23)
S: https://ia800501.us.archive.org/18/items/caledonianpocket01rugg/caledonianpocket01rugg_bw.pdf
Z: 2020 John Chambers <jc:trillian.mit.edu>
N: Most f notes have a sharp sign, but there are no natural signs. Such sharps not transcribed here.
M: 3/2
L: 1/8
K: Edor
|: "_Slow"\
e3g e2(d/e/g) (d<B) (A<G) | d3e (g<e)(d<B) (d<B)(A<G) | Te3d (ef)(ge) (dB)AG | ABge (d<B) (TA>G) E4 ::
DE (GA) G3A (G/A/B) (TA>G) | E2AB A3B cB (TA>G) | (DE)(GA) G3A (G/A/)B TA>G | (A>B)(G>A)
(G/A/B) TA>G E4 :: | Te>deg eged Bd (B/A/)G | dBde dgBg ABTA>G | edef gfga (g/a/b) G2 |
Agfe d(c/B/) (c/B/A/G/) E4 :: (de)(ga) g3a (g/a/b) (Ta>g) | e2ab a3b (c'b)(ag) | (de)(ga) gdga
(g/a/b) (Ta>g) | a>bg>a (g/a/b) Ta>g e4 :: edeg e/d/B/d/ e/g/f/g/ (d<B) (TA>G) | dBde (g/e/d/g/) (e/d/B/e/)
(d/B/A/d/) (B/A/B/G/) | edef (ga/b/) (ef/g/) (d<B) TA>G | (b/a/g/b/) (a/g/e/g/) (d<B) TA>G E4 :: (DE)G2 G/B/d/g/ B/d/g/b/
d(c/B/) (c/B/)(A/G/) | E2(A>B) A3B (cB)(AG) | (DE)G2 G/B/d/g/ B/d/g/b/ (d<B) TA>G  | g/b/a/b/ g/(d/e/g/) d<B TA>G E4 :|
